X:0265
T:The Merry Meeting.
M:2/4
L:1/8
Q:1/4=176
I: :: ::
Z:Jack Campin * www.campin.me.uk * 2009
K:G
 G2Bd   | cBAG   | e2fa |(gf)(ed)|\
(ed).c.B|(cB).A.G| FGAB |(B2A2)  |
 G2Bd   | cBAG   | e2fa |(gf)ed  |\
(ed)cB  | cBAG   |(FG)AF| G4    :|
 GABc   | dBec   | dBec | dBG2   |\
 DEFG   | AFBG   | AFBG | AFD2   |
 G2Bd   | cBAG   | e2fa |(gf).e.d| \
(ed).c.B|(cB)(AG)| FGAF | G4    :|

